src/assets/skin.svg

<svg width="37" height="42" viewBox="0 0 37 42" fill="none" xmlns="http://www.w3.org/2000/svg">
<path d="M36.4188 26.6002C36.3188 25.2002 35.6188 23.5002 33.9188 23.0002C33.6188 22.9002 33.4188 22.9002 33.2188 22.9002C33.3187 21.1002 33.3187 19.1002 33.3187 16.9002C33.3187 11.2002 31.7188 6.80023 28.6187 3.90023C24.5187 -0.0997732 19.0187 0.000226757 18.2188 0.000226757C17.4188 0.000226757 11.9187 -0.0997732 7.71875 3.90023C4.61875 6.80023 3.11875 11.2002 3.11875 16.9002C3.11875 19.1002 3.11875 21.1002 3.21875 22.9002C3.01875 22.9002 2.81875 22.9002 2.51875 23.0002C0.91875 23.5002 0.11875 25.2002 0.01875 26.6002C-0.08125 27.8002 0.21875 28.8002 0.91875 29.6002C1.61875 30.4002 2.61875 30.8002 3.91875 31.0002C5.31875 39.2002 9.01875 42.0002 18.2188 42.0002C27.3188 42.0002 31.1187 39.2002 32.5187 30.9002C33.8187 30.7002 34.8187 30.3002 35.5187 29.5002C36.2188 28.8002 36.5187 27.8002 36.4188 26.6002ZM2.41875 28.2002C2.11875 27.9002 2.01875 27.4002 2.01875 26.7002C2.11875 25.9002 2.41875 25.0002 3.11875 24.8002C3.21875 24.8002 3.21875 24.8002 3.31875 24.8002C3.41875 26.2002 3.51875 27.5002 3.61875 28.7002C3.11875 28.7002 2.71875 28.5002 2.41875 28.2002ZM18.2188 40.0002C7.21875 40.0002 5.11875 36.3002 5.11875 16.9002C5.11875 11.8002 6.51875 7.90023 9.11875 5.40023C12.4188 2.20023 16.8187 2.00023 17.9187 2.00023C18.1187 2.00023 18.2188 2.00023 18.2188 2.00023C18.4188 2.00023 23.5187 1.80023 27.2188 5.30023C29.9188 7.80023 31.2188 11.7002 31.2188 16.8002C31.2188 22.4002 31.0187 26.7002 30.6187 30.0002C29.4187 38.2002 26.2188 40.0002 18.2188 40.0002ZM34.0187 28.2002C33.7188 28.5002 33.3187 28.7002 32.8187 28.8002C32.9187 27.6002 33.0187 26.3002 33.1187 24.9002C33.2187 24.9002 33.2188 24.9002 33.3187 24.9002C33.9187 25.1002 34.3188 26.0002 34.4188 26.7002C34.4188 27.4002 34.3187 27.9002 34.0187 28.2002Z" fill="#4A4A4A"/>
</svg>

<?xml version="1.0" encoding="utf-8"?>
<!-- Generator: Adobe Illustrator 23.0.0, SVG Export Plug-In . SVG Version: 6.00 Build 0)  -->
<svg version="1.1" id="Calque_1" xmlns="http://www.w3.org/2000/svg" xmlns:xlink="http://www.w3.org/1999/xlink" x="0px" y="0px"
	 viewBox="0 0 36.4 42" style="enable-background:new 0 0 36.4 42;" xml:space="preserve">
<style type="text/css">
	.st0{fill:#4A4A4A;}
</style>
<path class="st0" d="M36.4,26.6c-0.1-1.4-0.8-3.1-2.5-3.6c-0.3-0.1-0.5-0.1-0.7-0.1c0.1-1.8,0.1-3.8,0.1-6c0-5.7-1.6-10.1-4.7-13
	C24.5-0.1,19,0,18.2,0c-0.8,0-6.3-0.1-10.5,3.9c-3.1,2.9-4.6,7.3-4.6,13c0,2.2,0,4.2,0.1,6c-0.2,0-0.4,0-0.7,0.1
	c-1.6,0.5-2.4,2.2-2.5,3.6c-0.1,1.2,0.2,2.2,0.9,3c0.7,0.8,1.7,1.2,3,1.4C5.3,39.2,9,42,18.2,42c9.1,0,12.9-2.8,14.3-11.1
	c1.3-0.2,2.3-0.6,3-1.4C36.2,28.8,36.5,27.8,36.4,26.6z M2.4,28.2C2.1,27.9,2,27.4,2,26.7c0.1-0.8,0.4-1.7,1.1-1.9
	c0.1,0,0.1,0,0.2,0c0.1,1.4,0.2,2.7,0.3,3.9C3.1,28.7,2.7,28.5,2.4,28.2z M18.2,40c-11,0-13.1-3.7-13.1-23.1c0-5.1,1.4-9,4-11.5
	C12.4,2.2,16.8,2,17.9,2c0.2,0,0.3,0,0.3,0c0.2,0,5.3-0.2,9,3.3c2.7,2.5,4,6.4,4,11.5c0,5.6-0.2,9.9-0.6,13.2
	C29.4,38.2,26.2,40,18.2,40z M34,28.2c-0.3,0.3-0.7,0.5-1.2,0.6c0.1-1.2,0.2-2.5,0.3-3.9c0.1,0,0.1,0,0.2,0c0.6,0.2,1,1.1,1.1,1.8
	C34.4,27.4,34.3,27.9,34,28.2z"/>
</svg>
